app/img/icons/ic--duck.svg

<svg xmlns="http://www.w3.org/2000/svg" preserveAspectRatio="xMidYMid" width="29.75" height="23.843" viewBox="0 0 29.75 23.843"><defs><style>.cls-1{fill:#fffdfd;fill-rule:evenodd}</style></defs><path d="M29.398 6.959l-3.215-1.542C25.194 1.741 20.759-1.286 15.731.53c-4.237 1.543-5.952 5.925-3.792 9.399-4.518 1.153-5.127 2.623-8.572-.743-.512-.504-1.287-1.651-2.342-.893a.91.91 0 0 0-.396.555c-2.308 8.576 1.979 13.592 9.678 14.76 2.192.331 7.271.346 9.727-.39 6.445-1.874 8.737-7.689 3.577-11.373.841-.591 1.459-1.239 1.904-1.931l3.883-1.874c.099-.065.198-.13.263-.245.182-.302.066-.662-.263-.836zm-8.392 3.943c-.824.352-.865 1.383-.066 1.78 5.424 2.673 3.396 7.495-2.324 8.792-2.621.605-6.051.454-8.606-.036-5.209-.987-8.482-3.971-7.551-10.154l.067.057c5.193 4.051 6.182.807 11.523.252.931-.093 1.36-1.088.709-1.693-3.149-2.948-.792-7.849 3.891-7.849 5.292 0 7.79 6.508 2.357 8.851zm5.251-2.739c.107-.411.14-.844.14-1.247l1.22.577-1.36.67zm-6.817-1.73c0 .44.215.857.544 1.146.339.303.792.476 1.311.476 1.014 0 1.846-.736 1.846-1.622 0-.454-.206-.858-.535-1.132a1.927 1.927 0 0 0-1.311-.49c-1.014 0-1.855.736-1.855 1.622zm2.317 0c0 .223-.215.396-.462.396a.514.514 0 0 1-.33-.115.41.41 0 0 1-.123-.281c0-.223.197-.404.453-.404a.5.5 0 0 1 .322.123c.081.072.14.173.14.281z" class="cls-1"/></svg>

<svg xmlns="http://www.w3.org/2000/svg" xmlns:xlink="http://www.w3.org/1999/xlink" preserveAspectRatio="xMidYMid" width="29.75" height="23.843" viewBox="0 0 29.75 23.843">
  <defs>
    <style>
      .cls-1 {
        fill: #fffdfd;
        fill-rule: evenodd;
      }
    </style>
  </defs>
  <path d="M29.398,6.959 L26.183,5.417 C25.194,1.741 20.759,-1.286 15.731,0.530 C11.494,2.073 9.779,6.455 11.939,9.929 C7.421,11.082 6.812,12.552 3.367,9.186 C2.855,8.682 2.080,7.535 1.025,8.293 C0.811,8.436 0.679,8.631 0.629,8.848 L0.629,8.848 C-1.679,17.424 2.608,22.440 10.307,23.608 C12.499,23.939 17.578,23.954 20.034,23.218 C26.479,21.344 28.771,15.529 23.611,11.845 C24.452,11.254 25.070,10.606 25.515,9.914 L29.398,8.040 C29.497,7.975 29.596,7.910 29.661,7.795 C29.843,7.493 29.727,7.133 29.398,6.959 L29.398,6.959 ZM21.006,10.902 L21.006,10.902 C20.182,11.254 20.141,12.285 20.940,12.682 C26.364,15.355 24.336,20.177 18.616,21.474 C15.995,22.079 12.565,21.928 10.010,21.438 C4.801,20.451 1.528,17.467 2.459,11.284 L2.526,11.341 C7.719,15.392 8.708,12.148 14.049,11.593 C14.980,11.500 15.409,10.505 14.758,9.900 C11.609,6.952 13.966,2.051 18.649,2.051 C23.941,2.051 26.439,8.559 21.006,10.902 L21.006,10.902 ZM26.257,8.163 L26.257,8.163 C26.364,7.752 26.397,7.319 26.397,6.916 L27.617,7.493 L26.257,8.163 L26.257,8.163 ZM19.440,6.433 L19.440,6.433 C19.440,6.873 19.655,7.290 19.984,7.579 C20.323,7.882 20.776,8.055 21.295,8.055 C22.309,8.055 23.141,7.319 23.141,6.433 C23.141,5.979 22.935,5.575 22.606,5.301 C22.259,4.991 21.814,4.811 21.295,4.811 C20.281,4.811 19.440,5.547 19.440,6.433 L19.440,6.433 ZM21.757,6.433 L21.757,6.433 C21.757,6.656 21.542,6.829 21.295,6.829 C21.163,6.829 21.056,6.786 20.965,6.714 C20.891,6.642 20.842,6.534 20.842,6.433 C20.842,6.210 21.039,6.029 21.295,6.029 C21.418,6.029 21.534,6.080 21.617,6.152 C21.698,6.224 21.757,6.325 21.757,6.433 L21.757,6.433 Z" class="cls-1"/>
</svg>
